X: 92
T:Montagnarde de Ste Anne
M:3/8
L:1/8
C:Eric Elsener
R:Bourree
Z:Steve Mansfield
K:GMajor
AcB | A2 G | F/G/A/F/D/F/ | BG/F/G | AcB | A2 G |
F/G/A/F/D/F/ |1 G3 :|2 G2 A|: _BA/B/A/G/ | F2 E | D/E/FG| 
_BA/G/A | _BA/B/A/G/ | F2 E | D/E/FA |1 G2 A :|2 G3 ||

